X: 1
T: Dever The Dancer
R: slip jig
M: 9/8
L: 1/8
K: Emin
|BEE BEF G2A|BEE BAG FGA|BEE BEF G2A|Bcd ABG FED:|
|ded cAF G2A|{B}ded def gfe|ded cAF G2A|Bcd ABG FED:|


Tune 148	Setting 12772

